!!!COM:	Busnoys, Antoine
!!!CDT:	~1430///-1492/11/06
!!!OTL:	A vous sans aultre
!!!AGN:	Song; Chanson
!!!SCT:	Bus3008
!!!SCA:	Bus3008
!!!voices:	3
**kern	**kern	**text	**text	**text	**kern	**text	**text	**text
*staff3	*staff2	*staff2	*staff2	*staff2	*staff1	*staff1	*staff1	*staff1
*Ivox	*Ivox	*	*	*	*Ivox	*	*	*
*I"Contratenor	*I"Tenor	*	*	*	*I"Discantus	*	*	*
*I'Ct	*I'T	*	*	*	*I'D	*	*	*
*clefG2	*clefG2	*	*	*	*clefG2	*	*	*
*k[]	*k[]	*	*	*	*k[]	*	*	*
*M2/1	*M2/1	*	*	*	*M2/1	*	*	*
*met(C)	*met(C)	*	*	*	*met(C)	*	*	*
=1-	=1-	=1-	=1-	=1-	=1-	=1-	=1-	=1-
!!LO:TX:Z=12:t=Rondeau
0r	1.d	A	Veuil-	Le	0r	.	.	.
.	2B	.	.	.	.	.	.	.
=2	=2	=2	=2	=2	=2	=2	=2	=2
0r	1c	.	.	.	0r	.	.	.
.	2d	vous	-lez	vous	.	.	.	.
.	[2f	.	.	.	.	.	.	.
=3	=3	=3	=3	=3	=3	=3	=3	=3
0r	4f]	.	.	.	1.d	A	Veuil-	Le
.	4g	.	.	.	.	.	.	.
.	1a	.	.	.	.	.	.	.
.	4g	.	.	.	2B	.	.	.
.	4f	.	.	.	.	.	.	.
=4	=4	=4	=4	=4	=4	=4	=4	=4
0r	1e	.	.	.	1c	.	.	.
.	2r	.	.	.	2d	vous	-lez	vous
.	[2d	.	.	.	[2f	.	.	.
=5	=5	=5	=5	=5	=5	=5	=5	=5
1.d	4d]	.	.	.	4f]	.	.	.
.	4e	.	.	.	4g	.	.	.
.	2.f	.	.	.	1a	.	.	.
.	4d	.	.	.	.	.	.	.
2B	2d	.	.	.	4g	.	.	.
.	.	.	.	.	4f	.	.	.
=6	=6	=6	=6	=6	=6	=6	=6	=6
1c	2r	.	.	.	1e	.	.	.
.	2A	sans	vo	di-	.	.	.	.
2d	2.B	aul-	pi-	.	2r	.	.	.
[2f	.	.	.	.	[2d	sans	vo	di-
.	4c	.	.	.	.	.	.	.
=7	=7	=7	=7	=7	=7	=7	=7	=7
4f]	2d	.	.	.	4d]	.	.	.
4g	.	.	.	.	4e	.	.	.
1a	2.d	.	.	.	1f	aul-	pi-	.
.	4B	.	.	.	.	.	.	.
4g	4c	.	.	.	4e	.	.	.
4f	4d	.	.	.	4d	.	.	.
=8	=8	=8	=8	=8	=8	=8	=8	=8
1e	1A	-tre	-ti&eacute;	-re	2.c#i	.	.	.
.	.	.	.	.	4B	.	.	.
2d	2r	.	.	.	1d	-tre	-ti&eacute;	-re
2B	2d	me	con-	n'ose	.	.	.	.
=9	=9	=9	=9	=9	=9	=9	=9	=9
2c	2e	viens	-de-	en-	1r	.	.	.
1d	2d	.	.	-tre-	.	.	.	.
.	2f	.	.	.	1d	me	con-	n'ose
2B	2g	.	.	.	.	.	.	.
=10	=10	=10	=10	=10	=10	=10	=10	=10
2A	1a	.	.	.	2c	viens	-de-	en-
2c	.	.	.	.	2e	.	.	-tre-
2d	2b	ren-	-scen-	-pren-	2f	ren-	-scen-	-pren-
[2e	[2cc	.	.	.	[2g	.	.	.
=11	=11	=11	=11	=11	=11	=11	=11	=11
2e]	4cc]	.	.	.	2g]	.	.	.
.	4a	.	.	.	.	.	.	.
2c	2.a	.	.	.	1e	.	.	.
1B	.	.	.	.	.	.	.	.
.	4g#i	.	.	.	.	.	.	.
.	4g#i	.	.	.	2d	.	.	.
.	4f#i	.	.	.	.	.	.	.
=12	=12	=12	=12	=12	=12	=12	=12	=12
1A	1.a	-dre	-dre	-dre,	1e	-dre	-dre	-dre,
1d	.	.	.	.	2r	.	.	.
.	2f	.	.	.	[2a	Il	En-	Ja-
=13	=13	=13	=13	=13	=13	=13	=13	=13
2c	1e	.	.	.	2a]	.	.	.
2B	.	.	.	.	2g	m'est	-vers	.
1d	2r	.	.	.	2f	for-	moi	-mais
.	[2a	Il	En-	Ja-	4e	.	.	.
.	.	.	.	.	4d	.	.	.
=14	=14	=14	=14	=14	=14	=14	=14	=14
1A	2a]	.	.	.	2c#i	.	.	.
.	2g	m'est	-vers	.	2c#i	.	.	.
2r	2f	for-	moi	-mais	2d	.	qui	en
[2a	4e	.	.	.	2f	.	.	.
.	4d	.	.	.	.	.	.	.
=15	=15	=15	=15	=15	=15	=15	=15	=15
2a]	2c#i	.	.	.	2e	-ce	de	moi
2g	2c#i	.	.	.	2e	qu'ain-	pri-	n'eust
2f	2d	.	qui	en	2.d	-si	-me	tant
4e	2f	.	.	.	.	.	.	.
4d	.	.	.	.	4c	.	.	.
=16	=16	=16	=16	=16	=16	=16	=16	=16
1c#i	2e	-ce	de	moi	1A	.	.	.
.	2e	qu'ain-	pri-	n'eust	.	.	.	.
2d	2.d	-si	-me	tant	2r	.	.	.
2f	.	.	.	.	[2d	le	fa-	d'au-
.	4c	.	.	.	.	.	.	.
=17	=17	=17	=17	=17	=17	=17	=17	=17
1e	1A	.	.	.	2d]	.	.	.
.	.	.	.	.	2c	.	.	.
2.d	2r	.	.	.	2d	fa-	.	-da-
.	[2d	le	fa-	d'au-	2f	.	.	.
4c	.	.	.	.	.	.	.	.
=18	=18	=18	=18	=18	=18	=18	=18	=18
2B	2d]	.	.	.	2g	.	.	.
2A	2e	.	.	.	1a	.	.	.
1d	2f	fa-	.	-da-	.	.	.	.
.	2d	.	.	.	2f	.	.	.
=19	=19	=19	=19	=19	=19	=19	=19	=19
2.cN	2.AN	-ce;	-ce&	-ce;	1eN	-ce;	-ce&	-ce;
4d	4B	.	.	.	.	.	.	.
2e	2c	.	.	.	1r	.	.	.
2f	[2d	A	.	N'au	.	.	.	.
=20	=20	=20	=20	=20	=20	=20	=20	=20
2.d	2d]	.	.	.	1a	A	.	N'au
.	2f	.	.	.	.	.	.	.
4c	.	.	.	.	.	.	.	.
1A	2e	.	.	.	1cc	.	.	.
.	[2a	.	.	.	.	.	.	.
=21	=21	=21	=21	=21	=21	=21	=21	=21
1e	2a]	.	.	.	1b	ce	.	moins
.	2g#i	.	.	.	.	.	.	.
1A	1a	.	.	.	2a	me	.	pre-
.	.	.	.	.	[2a	con-	.	-ten-
=22	=22	=22	=22	=22	=22	=22	=22	=22
0r	1cc	.	.	.	2a]	.	.	.
.	.	.	.	.	2f	.	.	.
.	1b	ce	.	moins	1g	.	.	.
=23	=23	=23	=23	=23	=23	=23	=23	=23
1a	2a	me	.	pre-	2f	.	.	.
.	1a	con-	.	-ten-	4e	.	.	.
.	.	.	.	.	4d	.	.	.
1cc	.	.	.	.	2c	.	.	.
.	2f	.	.	.	2d	.	.	.
=24	=24	=24	=24	=24	=24	=24	=24	=24
1b	1g	.	.	.	1e	.	.	.
2a	2f	-straint	.	-dant	1f	-straint	.	-dant
[2a	4e	.	.	.	.	.	.	.
.	4d	.	.	.	.	.	.	.
=25	=25	=25	=25	=25	=25	=25	=25	=25
2a]	2c	.	.	.	1r	.	.	.
2f	2d	.	.	.	.	.	.	.
1g	1e	vos-	.	es-	1c	vos-	.	es-
=26	=26	=26	=26	=26	=26	=26	=26	=26
1.f	2.f	-tre	.	-tre	2.d	-tre	.	-tre
.	4g	.	.	.	4e	.	.	.
.	2a	.	.	en	2f	.	.	en
[2e	2b-i	fa-	.	gra-	[2g	fa-	.	gra-
=27	=27	=27	=27	=27	=27	=27	=27	=27
2e]	2g	.	.	.	2g]	.	.	.
2c	1cc	.	.	.	2e	.	.	.
1f	.	.	.	.	1d	.	.	.
.	2b	.	.	.	.	.	.	.
=28	=28	=28	=28	=28	=28	=28	=28	=28
1g	2cc	.	.	.	1c	.	.	.
.	4b	.	.	.	.	.	.	.
.	4a	.	.	.	.	.	.	.
2r	2g	.	.	.	2B	.	.	.
[2cc	[2a	.	.	.	2A	.	.	.
=29	=29	=29	=29	=29	=29	=29	=29	=29
4cc]	2a]	.	.	.	2.c	.	.	.
4a	.	.	.	.	.	.	.	.
4cc	4g	.	.	.	.	.	.	.
4b	4f	.	.	.	4d	.	.	.
4g	1e	-ce	.	-ce	2e	.	.	.
4a	.	.	.	.	.	.	.	.
4b	.	.	.	.	[2e	.	.	.
[4cc	.	.	.	.	.	.	.	.
=30	=30	=30	=30	=30	=30	=30	=30	=30
4cc]	1r	.	.	.	4e]	.	.	.
8bL	.	.	.	.	4d	.	.	.
8aJ	.	.	.	.	.	.	.	.
4g#i	.	.	.	.	2B	.	.	.
4f#i	.	.	.	.	.	.	.	.
1a	1e	Qui	.	En	[1A	-ce	.	-ce
=31	=31	=31	=31	=31	=31	=31	=31	=31
1r	2f	tant	.	tant,	0A]	.	.	.
.	1e	.	.	.	.	.	.	.
1e	.	.	.	.	.	.	.	.
.	2c	.	.	.	.	.	.	.
=32	=32	=32	=32	=32	=32	=32	=32	=32
2f	2d	.	.	.	1r	.	.	.
1e	2e	.	.	.	.	.	.	.
.	1A	est	.	.	1e	Qui	.	En
2c	.	.	.	.	.	.	.	.
=33	=33	=33	=33	=33	=33	=33	=33	=33
2d	1r	.	.	.	2f	tant	.	tant
2e	.	.	.	.	1e	.	.	.
1A	1e	bel-	.	en	.	.	.	.
.	.	.	.	.	2c	.	.	.
=34	=34	=34	=34	=34	=34	=34	=34	=34
2r	2f	.	.	tant	2d	.	.	.
1c	2g	.	.	.	2e	.	.	.
.	2a	.	.	.	2A	.	.	.
2d	[2b	.	.	.	2G	.	.	.
=35	=35	=35	=35	=35	=35	=35	=35	=35
2f	2b]	.	.	.	2A	.	.	.
1e	1a	.	.	.	2c	.	.	.
.	.	.	.	.	1B	.	.	.
2d	2g#i	.	.	.	.	.	.	.
=36	=36	=36	=36	=36	=36	=36	=36	=36
*M2/1	*M2/1	*	*	*	*M2/1	*	*	*
*met(C|)	*met(C|)	*	*	*	*met(C|)	*	*	*
1.e	1a	.	.	qu'hon-	1A	est	.	.
.	2g	.	.	.	1r	.	.	.
2c	2e	.	.	.	.	.	.	.
=37	=37	=37	=37	=37	=37	=37	=37	=37
2d	2.f	-le,	.	-neur	1a	bel-	.	qu'hon-
2f	.	.	.	.	.	.	.	.
.	4e	.	.	.	.	.	.	.
1e	1c	.	.	.	2g	.	.	.
.	.	.	.	.	2e	.	.	.
=38	=38	=38	=38	=38	=38	=38	=38	=38
1a	2d	doul-	.	se	2.f	le,	.	-neur
.	2f	.	.	.	.	.	.	.
.	.	.	.	.	4e	.	.	.
2g	1e	.	.	.	1c	.	.	.
2e	.	.	.	.	.	.	.	.
=39	=39	=39	=39	=39	=39	=39	=39	=39
2.f	1d	ce	.	[peut]	2d	doul-	.	se
.	.	.	.	.	2f	.	.	.
4e	.	.	.	.	.	.	.	.
1c	2r	.	.	.	1e	.	.	.
.	2A	et	.	es-	.	.	.	.
=40	=40	=40	=40	=40	=40	=40	=40	=40
2d	2B	ten-	.	-ten-	1d	-ce	.	[peut]
2f	1d	.	.	.	.	.	.	.
1e	.	.	.	.	2r	.	.	.
.	2c	.	.	.	2A	et	.	es-
=41	=41	=41	=41	=41	=41	=41	=41	=41
2d	2d	.	.	.	2B	ten-	.	-ten-
2g	2e	.	.	.	2c	.	.	.
2f	2f	.	.	.	2d	.	.	.
2e	[2g	.	.	.	[2e	.	.	.
=42	=42	=42	=42	=42	=42	=42	=42	=42
1c	4g]	.	.	.	2e]	.	.	.
.	4e	.	.	.	.	.	.	.
.	1a	.	.	.	2c	.	.	.
2r	.	.	.	.	1B	.	.	.
2d	2g	.	.	.	.	.	.	.
=43	=43	=43	=43	=43	=43	=43	=43	=43
2c	2f	.	.	.	2A	.	.	.
2B	2d	.	.	.	1d	.	.	.
1A	1e	.	.	.	.	.	.	.
.	.	.	.	.	2c#i	.	.	.
=44	=44	=44	=44	=44	=44	=44	=44	=44
0dl	0dl	-dre.	.	-dre.	0dl	-dre.	.	-dre.
==	==	==	==	==	==	==	==	==
*-	*-	*-	*-	*-	*-	*-	*-	*-
!!!RDF**kern: l=long note in original notation
!!!RDF**kern: i=editorial accidental
!!!ENC:	Chris Gage 02-16-2015
!!!END:	2015/10/29/
!!!EED:	Jesse Rodin
!!!EEV:	2015/11/05/
!!!ONB:	Translated from MusicXML and edited on 2015/10/30/ by Craig Sapp
!!muse2ps: C^@{COM}^i2I150v95,95,120Q16z18c40l2600
